X: 38075
T: Spirits Of Wine, The
R: reel
M: 4/4
K: Amajor
|:ed|"A"cBAc "E7"BGED|"A"CEAc e2fg|aece gaec|"Bm"dcBA "E7"GBed|
"A"cBAc "E7"BGED|"A"CEAc e2fg|aece gaec|"E7"(3ABA GB "A"A2:|
|:af|"A"eccB ceag|"D"fddc dfaf|"A"eccB ceaf|ecBA "E7"BEGB|
"A"eccB ceag|"D"fddc dfaf|"A"(3efe ce "E7"dBGB|"A"Aaec A2:|

